X: 1
T: Bony Crossing The Alps
T: Napóilean Ag Trasnú Na NAlp
R: march
M: 4/4
L: 1/8
K: Amix
|: E2FG     |A4 A3A      |ABAG E2D2|B2d2 e2B2|d4       |
   e2fg     |a3g eged    |BdBA G2E2|G3G G2E2 |G4      :|
|: e2fg     |a3g eged   |B3d e2f2 |g3f g2a2 |g4       |
   e2fg     |a3g eged   |BdBA G2E2|G3G G2E2 |G4      :|



